X: 1531
T: O Mâh-ı Evc-i Nahvet
C: Ahmet Avni Konuk
O: Turkey
F: http://compmusic.upf.edu/node/140
N: evicbuselik--kupe--agiraksak--o--ahmet_avni_konuk
N: makam= evicbuselik
N: form= kupe
N: usul= agiraksak = 9/4
M: 9/4
L: 1/16
K: C _1/4B ^f  
Q: 1/4=60
%%MIDI tuningsystem comma53
f8 z2d4^e2 f4 e2g2 f8 e2d2  | ^c3=B c4 d2^e2 d4 e2f2 e2g2 f4 e2f2 d3e  | 
w:  Ah  ah  o  mâh_ *  *  ı   |  Evc_ *  *  i  *  *  nah *  *  *  vet   | 
f8 z2^e4f2 g2a2 g2f2 g8 f4  | c'4 b2a2 a2b2 a2g2 a2g2 f2^e2 f8 z4  | 
w:  *  â şı kı  *  *  *  gam  |  hâ *  *  *  *  *  rı na    | 
z8 z2e4f2 g4 g2f2 g2f2 g2a2 g2f2  | \
w:  Ver me di  *  *  bir   | 
e6d2 d2e2 d2c2 d2=f2 e2d2 d2c2 c2B2 e2dc  | 
w:  Bû se lik  *  *  *  ruh  | 
c8 z2c4c2 c2_2/4B2 c2d2 e2d2 c2B2 A4  | \
w:  *  sat  sa var  *  *  *  hep   | 
=B2c2 B2c2 d4 c2B2 B2A2 A2^G2 A8 z4  | 
w:  yâ *  *  *  *  rı *  na    | 
|


